!!!OTL:Mein Schatzerl
!!!OTL-incipit:SCHOEN RUNDLICH UND FEIN
!!!COM: Otto Jahn
!!!ARE: Europa, Mitteleuropa, Deutschland
!!!SCT: F0169
!!!TXL: @@DE
!!!YEM: Copyright 1995, estate of Helmut Schaffrath.
**kern	**text
*ICvox	*
*M3/8	*
*k[b-]	*
*F:	*
!LO:TX:a:t=Gemächlich.	!
{16fL	1._Schön
16gJ	.
=1	=1
8a	rundlich
16aL	.
16gJ	.
16aL	und
16b-J	.
=2	=2
4cc}	fein
{8a	mein
=3	=3
8b-/	Schatʒerl
16b-/L	.
16aJ	.
16b-L	muß
16ddJ	.
=4	=4
4cc}	ſein,
{8cc	von
=5	=5
8dd	fri-
16b-L	-ſchem
16aJ	.
16b-L	Ge-
16ddJ	.
=6	=6
8cc}	-ſicht,
{4dd;	ſonſt
=7	=7
16dd/L	mag
16gJ	.
16gL	ich
16fJ	.
16gL	ſie
16aJ	.
=8	=8
4f}	nicht.
==:||	==:||
!!!AGN: Liebes - Lied
!!!ONB: ESAC (Essen Associative Code) Database: FINK
!!!AMT: simple triple
!!!AIN: vox
!!!EED: Helmut Schaffrath
!!!EEV: 1.0
!!Text: Volkslied
!!!source: Musikalischer Hausschatz der Deutschen. Eine Sammlung von über 1000 Liedern und Gesängen mit Singstimmen und Klavierbegleitung. Leipzig, Litterarisches Verlags-Haus.
!!!page: 99
!!!ENC: Anna Maria Matuszewska
!!!EEV: 2025/03/11
*-	*-
